packages/appstore/src/assets/svgs/wallet/zingpay-dark.svg

<svg width="128" height="80" viewBox="0 0 128 80" fill="none" xmlns="http://www.w3.org/2000/svg">
<path d="M80.3094 31.4601C80.6925 31.4601 81.0739 31.502 81.4479 31.5841C81.8329 31.6681 82.2142 31.7739 82.5864 31.9016H86.9799V33.2554H84.0351V33.3393C84.3562 33.7079 84.6098 34.133 84.7832 34.591C84.9328 35.0471 85.0076 35.5251 85.0094 36.0068C85.0386 37.18 84.5514 38.3057 83.6757 39.0867C82.851 39.8858 81.7453 40.331 80.5958 40.3273C80.5958 40.3273 79.1599 40.3273 79.0577 40.5828C79.0577 40.5828 77.713 41.7541 79.0577 42.3708C79.6343 42.6208 80.2473 42.7814 80.8732 42.8416L81.0775 42.8543C81.3676 42.8744 81.7252 42.9145 82.1357 42.9145H82.4021C83.0498 42.9966 83.5005 42.9966 83.7778 42.9966C84.1847 43.0204 84.5806 43.1244 84.9474 43.3032C85.3305 43.4984 85.6772 43.7538 85.9746 44.064C86.3085 44.4107 86.5803 44.8121 86.7756 45.2536C86.9872 45.7718 87.093 46.3264 87.0821 46.8866C87.0857 47.5215 86.9525 48.151 86.6916 48.733C86.4106 49.3315 85.9874 49.8515 85.4619 50.251C84.8415 50.7126 84.1482 51.0593 83.4093 51.2783C82.4605 51.5373 81.4771 51.6578 80.4937 51.6377C79.0231 51.7344 77.5561 51.4187 76.2552 50.7254C75.3357 50.1671 74.7956 49.1508 74.8503 48.0762C74.8193 47.2168 75.2007 46.3939 75.8757 45.8594C76.6183 45.2919 77.5251 44.9781 78.4611 44.9653V44.7829C78.2057 44.6898 77.9484 44.5858 77.682 44.4636C77.4302 44.3541 77.1949 44.2081 76.9832 44.033C76.7606 43.8414 76.58 43.6079 76.4505 43.3451C76.2972 43.0258 76.226 42.6719 76.2443 42.3179C76.2498 41.8308 76.4158 41.3582 76.7169 40.9751C77.1091 40.5244 77.6018 40.1723 78.1546 39.9478V39.7417C77.4065 39.3695 76.7625 38.8203 76.2753 38.1415C75.8192 37.4774 75.582 36.6892 75.5984 35.8828C75.5619 34.6822 76.0436 33.5218 76.923 32.7026C77.8426 31.8578 79.0596 31.4126 80.3094 31.4619V31.4601ZM80.9863 45.655C79.7036 45.582 78.4812 46.1987 78.4812 47.7076C78.4848 47.9393 78.5359 48.1692 78.6271 48.3827C78.7311 48.6272 78.8935 48.8425 79.0979 49.0103C79.3442 49.2129 79.6306 49.3643 79.939 49.4519C80.3586 49.5796 80.7965 49.638 81.2326 49.6252C81.9624 49.6599 82.6849 49.4501 83.2852 49.0304C83.7833 48.5889 84.0771 47.9612 84.0953 47.2971C84.1354 46.8191 83.9402 46.352 83.5717 46.0436C83.2068 45.8338 82.7926 45.7316 82.3711 45.7462C81.9095 45.655 81.4479 45.655 80.9863 45.655ZM55.9353 27.3129V30.9255L50.4325 42.9218H56.0375V45.9907H45.7744V44.657L52.476 30.9766H45.9587V27.3129H55.9335H55.9353ZM61.7738 32.1771V45.9907H58.0591V32.1789H61.7738V32.1771ZM70.6831 31.4582C71.9493 31.3688 73.1718 31.9344 73.9253 32.9562C73.96 33.0164 73.991 33.0784 74.0165 33.1423C74.4033 34.04 74.5584 35.0216 74.469 35.994V45.9925H70.4879V36.5688C70.497 35.943 70.5061 34.9267 69.831 34.6202C69.5847 34.5143 69.3165 34.4742 69.0501 34.507C68.8221 34.5198 68.6013 34.5855 68.4042 34.7023C67.7784 35.1018 67.7784 36.1984 67.7784 36.868V45.9907H63.7954V31.6662H67.7784V32.4873C68.5922 31.8067 69.6212 31.4436 70.6831 31.4601V31.4582ZM80.2163 32.9562C79.9645 32.9507 79.7182 33.0219 79.5084 33.1624C79.2986 33.312 79.1325 33.5127 79.0267 33.7462C78.9027 34.0144 78.8206 34.2972 78.7804 34.5892C78.7293 34.9212 78.7074 35.2588 78.7074 35.5945C78.6819 36.2568 78.8278 36.9136 79.1271 37.5029C79.3278 37.939 79.7492 38.2273 80.2273 38.251C80.7254 38.2565 81.1797 37.9682 81.3859 37.5139C81.6814 36.941 81.8237 36.3006 81.7964 35.6565C81.8292 34.976 81.6869 34.2972 81.3859 33.686C81.1687 33.2372 80.7144 32.9544 80.2181 32.9562H80.2163ZM59.9456 26.4608C60.4328 26.4626 60.8962 26.6725 61.2192 27.0355L61.3651 27.2089C61.637 27.572 61.7811 28.0153 61.7738 28.4715C61.7848 29.0133 61.5823 29.537 61.2082 29.9293C60.8798 30.2996 60.4018 30.5058 59.9055 30.4949C59.4202 30.4912 58.9567 30.2832 58.6338 29.9183C57.904 29.0918 57.904 27.8511 58.6338 27.0246L58.8163 26.8604C59.1374 26.6068 59.5333 26.4663 59.9475 26.459L59.9456 26.4608Z" fill="white"/>
<path d="M124 31.879L118.773 47.2708L118.413 48.298L118.269 48.6538C118.081 49.11 117.911 49.4968 117.747 49.8161C117.503 50.2758 117.214 50.7083 116.884 51.1097L116.64 51.3724C116.295 51.7045 115.886 51.9635 115.437 52.135C114.822 52.3722 114.167 52.4872 113.509 52.4744C113.038 52.4744 112.567 52.4416 112.102 52.3722H111.732V49.7558L112.246 49.838C112.555 49.8854 112.867 49.9073 113.18 49.8982C113.72 49.9383 114.257 49.7777 114.687 49.4475C115.103 49.0333 115.392 48.5097 115.519 47.9386L115.704 47.2909L110.358 31.9592H114.525L117.235 42.4376L119.944 31.9592H123.392L123.996 31.8771L124 31.879ZM105.012 31.7348C106.331 31.6801 107.623 32.118 108.635 32.9664C109.659 33.9571 110.19 35.3529 110.082 36.7742V46.8311H107.331V45.8057C107.07 46.0794 106.769 46.3166 106.439 46.5027C105.709 46.9114 104.882 47.1157 104.049 47.0993C103.417 47.0993 102.793 46.9789 102.209 46.7399C101.655 46.5082 101.158 46.1578 100.753 45.7127C100.345 45.2839 100.027 44.7785 99.8193 44.2257L99.6952 43.8498C99.5492 43.3462 99.4763 42.8226 99.4799 42.2953C99.4653 41.4852 99.6551 40.6824 100.035 39.9653C100.429 39.2866 101.02 38.7429 101.728 38.4054C102.54 38.004 103.439 37.8106 104.344 37.8398H107.3V36.8144C107.366 36.1758 107.152 35.5408 106.716 35.0701C106.223 34.6705 105.594 34.4716 104.961 34.5154C104.435 34.4899 103.914 34.6121 103.452 34.8657C103.087 35.1011 102.832 35.4678 102.733 35.8911L102.642 36.2104H99.9707V35.7361C100.014 34.5647 100.578 33.4736 101.511 32.762C102.532 32.045 103.762 31.6856 105.01 31.7348H105.012ZM92.9645 28.2664C94.5901 28.1314 96.2067 28.6149 97.4911 29.6202L97.7429 29.9176C98.6224 31.036 99.0493 32.4537 98.9289 33.8805C98.9709 35.0336 98.7282 36.1794 98.2191 37.2158C97.7393 38.1134 96.9584 38.8159 96.0133 39.1954L95.4294 39.3669C94.4533 39.6242 93.4443 39.7464 92.4317 39.73V46.6067H88.5107V28.2664H92.9645ZM107.026 40.52L104.746 40.551C104.271 40.5018 103.8 40.6952 103.496 41.0637C103.222 41.4815 103.091 41.9723 103.114 42.4686C103.071 43.0415 103.242 43.609 103.598 44.0614L103.742 44.2056C104.045 44.4756 104.439 44.6252 104.85 44.6252C105.474 44.6252 106.056 44.3169 106.41 43.8042C106.842 43.2094 107.059 42.485 107.026 41.7516V40.52ZM92.6889 31.2696L92.4317 31.2842V36.672C93.0922 36.7195 93.7508 36.5553 94.311 36.1977C94.7872 35.6284 95.0043 34.884 94.9039 34.1469C94.9751 33.3587 94.7598 32.5723 94.3 31.9301C93.8037 31.4484 93.1195 31.2112 92.4317 31.2842L92.6889 31.2696Z" fill="#72C579"/>
<path d="M23.6157 50.6111C23.6339 50.6603 23.6522 50.7078 23.6777 50.7534C23.7744 50.9796 23.9021 51.1913 24.0572 51.3792C24.1886 51.5616 24.3364 51.7295 24.4988 51.8828C24.8272 52.1893 25.1976 52.4484 25.5971 52.6527C25.8234 52.7604 26.0569 52.8534 26.2941 52.9301C26.8944 52.6691 27.5403 52.5323 28.1935 52.5287C28.5912 52.5323 28.9871 52.5834 29.3739 52.6837C30.8573 51.8755 31.713 50.2589 31.5488 48.5785C31.651 46.6445 30.3537 44.9167 28.4708 44.4733C28.1971 44.5098 27.9234 44.528 27.6498 44.5335C25.8325 44.5335 23.4004 43.8055 22.5173 42.0193C21.9736 40.8698 22.5173 39.5872 22.2418 38.3976C21.9754 37.3886 21.366 36.5073 20.5176 35.9034C19.7659 35.356 18.8591 35.0641 17.9304 35.0714C16.2847 35.0076 14.763 35.949 14.0879 37.4506C13.411 38.954 13.7121 40.7166 14.8506 41.9062C15.6169 42.7454 16.6751 43.2563 17.8063 43.333H18.3519C20.1144 43.3749 21.7601 44.2288 22.8074 45.6501C23.8547 47.0678 24.1886 48.8923 23.7087 50.5892L23.6175 50.6092L23.6157 50.6111Z" fill="#A8E2C1"/>
<path d="M12.7995 49.9931C12.7557 49.734 12.7266 49.4749 12.7174 49.2122V49.0279C12.712 47.03 13.7665 45.1781 15.4871 44.1637H15.5382C16.372 43.6947 17.3116 43.4466 18.2695 43.4448C18.7512 43.4448 18.7932 43.1583 19.2438 43.2715C20.9407 42.7259 22.1503 41.2261 22.3237 39.4527C22.3528 38.285 21.8858 37.1592 21.0337 36.3583C20.1835 35.5555 19.0322 35.1541 17.8681 35.2544C15.4597 35.3548 13.5896 37.3837 13.6808 39.7921C13.8359 41.6111 12.9966 43.3736 11.484 44.399C9.935 45.231 8.13965 44.6253 6.6417 45.6525C5.03063 46.6578 4.25702 48.59 4.72776 50.4291C5.19849 52.2683 6.80226 53.5929 8.69796 53.7042C10.5937 53.8137 12.3416 52.6879 13.024 50.9163C12.9254 50.6152 12.8488 50.3069 12.7995 49.9931Z" fill="#93D9E5"/>
<path d="M37.5023 54.0054C36.4075 54.0893 35.3128 53.8539 34.3513 53.3285C33.5795 52.9489 32.9318 52.3578 32.483 51.6243C31.8973 50.7321 31.5853 49.6867 31.5889 48.6175C31.5908 47.999 31.6966 47.3859 31.8991 46.8021C30.9467 45.0505 28.916 44.1857 26.9966 44.7111C25.0753 45.2384 23.7671 47.0174 23.8419 49.0079C23.8127 50.6591 24.7743 52.168 26.285 52.8358C26.7776 52.6515 27.2976 52.5439 27.8231 52.5184C30.3993 52.3468 32.6545 54.2243 32.9555 56.7878C33.1927 58.0285 32.9555 59.3421 33.6543 60.5226C34.4389 61.8783 35.8839 62.7139 37.4494 62.7194C39.7811 62.6063 41.6093 60.685 41.6093 58.3514C41.6093 56.0197 39.7811 54.0984 37.4494 53.9853L37.5023 54.0054Z" fill="#A8E2C1"/>
<path d="M17.9301 34.7725C16.7679 34.8929 15.5947 34.6867 14.5437 34.1777C13.8139 33.7489 13.2118 33.1322 12.7976 32.3915C12.628 32.0411 12.5148 31.6671 12.4601 31.284C12.2448 30.3352 12.2448 29.3499 12.4601 28.3994C11.6847 26.3139 9.46603 25.148 7.3076 25.6899C5.15099 26.2318 3.74791 28.31 4.05079 30.5122C4.35366 32.7162 6.26578 34.3401 8.48808 34.2799C9.54449 34.2142 10.5954 34.4678 11.5059 35.0097C12.1445 35.3855 12.6772 35.9183 13.0567 36.5587C13.9581 38.0968 13.3012 39.7097 14.2244 41.2387C15.2334 42.9173 17.2313 43.7292 19.1252 43.2238C21.0172 42.7184 22.3473 41.0216 22.3838 39.0638C22.3619 37.9034 21.8821 36.7996 21.0464 35.9949C20.2108 35.1903 19.0905 34.7506 17.9301 34.7725Z" fill="#93D9E5"/>
<path d="M17.6017 16.0031C15.6202 16.0542 13.9289 17.4445 13.4965 19.3785C13.3213 20.3035 13.3432 21.2578 13.179 22.181C13.0549 22.9637 12.7484 23.7045 12.285 24.3467C11.8161 24.989 11.1246 25.4305 10.3455 25.5874C9.6631 25.6422 8.97707 25.6422 8.29286 25.5874C6.1618 25.6239 4.36827 27.193 4.04898 29.3004C3.73151 31.4077 4.98497 33.4366 7.01021 34.0971C9.01721 34.7138 11.1829 33.8617 12.2339 32.0445C12.3251 31.8803 12.389 31.7051 12.4182 31.5208C12.4546 31.2782 12.4546 31.0337 12.4182 30.791C12.2375 29.7091 12.3634 28.5961 12.7776 27.5798C13.2064 26.5581 14.0055 25.737 15.0145 25.2809C16.3391 24.7153 17.879 24.9525 19.2438 24.469C20.8676 23.8395 21.9623 22.3087 22.0353 20.5699C22.0992 19.3621 21.6558 18.1816 20.8129 17.3149C19.9663 16.4483 18.7986 15.9721 17.5889 16.0013H17.5999L17.6017 16.0031Z" fill="#93D9E5"/>
<path d="M37.2353 34.8885C34.8232 34.9505 32.9184 36.952 32.975 39.3623C33.0443 40.4187 32.7925 41.4696 32.2579 42.3801C31.8711 43.0132 31.3402 43.5441 30.7071 43.9309C29.1562 44.8341 27.3608 44.2283 25.8319 45.1515C24.4908 46.0364 23.73 47.5745 23.8413 49.1765C23.9508 50.7784 24.9178 52.1979 26.3665 52.8894C26.9467 52.6522 27.567 52.5318 28.1928 52.53C28.7767 52.53 29.3532 52.6395 29.897 52.8493C30.78 52.4296 31.5026 51.729 31.9496 50.8569C31.6704 50.1727 31.5281 49.441 31.5299 48.7039C31.4606 46.4141 32.8728 44.3433 35.0276 43.5715C35.4162 43.4346 35.8267 43.369 36.2391 43.3763H36.4033C37.467 43.5551 38.5581 43.431 39.5543 43.0168C40.9263 42.2104 41.7565 40.7288 41.7291 39.1378C41.6981 37.9774 41.2055 36.8772 40.3625 36.0817C39.5196 35.2844 38.3939 34.8556 37.2353 34.8885Z" fill="#A8E2C1"/>
<path d="M31.6107 48.5977C31.6107 47.9208 31.7366 47.2475 31.9811 46.6162C31.1527 45.308 29.7004 44.5289 28.1513 44.5636C27.8831 44.5746 27.6168 44.6056 27.3522 44.6548C27.0931 44.7114 26.8395 44.7862 26.5932 44.8829C26.3542 44.9833 26.1243 45.1037 25.9053 45.2405C25.6864 45.3737 25.4857 45.5288 25.2996 45.704C25.1062 45.8736 24.931 46.0634 24.7759 46.2677C24.619 46.4703 24.484 46.6874 24.3654 46.9136C24.2414 47.1399 24.1392 47.3771 24.0571 47.6215C23.9823 47.877 23.9275 48.1379 23.8929 48.4025C23.8929 48.7728 23.8929 49.1505 23.8308 49.5209C23.8254 49.6961 23.8071 49.8712 23.7797 50.0445C23.756 50.2106 23.7214 50.3748 23.6776 50.5372C23.5736 50.8619 23.4422 51.1776 23.2871 51.4823C23.1849 51.6848 23.0718 51.8837 22.9496 52.0771C21.9899 53.7246 20.1945 54.7044 18.2897 54.6223C18.0105 54.6132 17.7332 54.5895 17.4577 54.5493C17.1566 54.6351 16.8684 54.7555 16.5965 54.9088C15.2427 55.7298 14.4308 57.2077 14.4618 58.7896C14.5202 61.2308 16.5491 63.163 18.9921 63.1046C21.437 63.0444 23.3674 61.0155 23.3072 58.5725C23.2451 57.7332 23.3491 56.8884 23.6174 56.0911C24.1702 53.9856 26.0805 52.5241 28.2553 52.5387C28.914 52.5387 29.5672 52.6719 30.1748 52.9291C31.0232 52.5131 31.7165 51.8362 32.1544 50.9988C31.7931 50.2507 31.607 49.4297 31.6107 48.5977Z" fill="#81D9B9"/>
<path d="M27.7115 52.5281C29.8538 52.5281 31.5905 50.7408 31.5905 48.536C31.5905 46.3313 29.8538 44.5439 27.7115 44.5439C25.5692 44.5439 23.8325 46.3313 23.8325 48.536C23.8325 50.7408 25.5692 52.5281 27.7115 52.5281Z" fill="#81D9B9"/>
<path d="M19.9829 54.4175C19.4812 54.558 18.963 54.6309 18.443 54.6328H18.2386C15.1515 54.6109 12.6647 52.0966 12.6756 49.0095V48.9274V48.7632V48.3107C12.6866 48.1648 12.7066 48.0224 12.7376 47.8801C12.7668 47.6977 12.8088 47.5152 12.8599 47.3364C12.0516 45.8877 10.5062 45.0046 8.8459 45.0484C7.24212 45.0211 5.75147 45.875 4.96327 47.2744C4.17506 48.6738 4.21885 50.3907 5.07274 51.75C5.93027 53.1074 7.46107 53.8883 9.06302 53.7807C10.1395 53.7095 11.2105 53.9595 12.141 54.4996C12.8198 54.8517 13.3981 55.3662 13.8251 55.9993C14.7483 57.5484 14.1334 59.3437 15.0767 60.8727C15.9342 62.1973 17.4213 62.9764 18.9977 62.9253C21.1944 62.9253 23.0463 61.2832 23.3072 59.1011C23.57 56.9189 22.1578 54.8864 20.023 54.3664L19.9829 54.4175Z" fill="#93D9E5"/>
<path d="M23.3072 58.5095C23.2451 56.5518 21.8859 54.8732 19.9829 54.4043H19.8588C19.7256 54.4043 19.5833 54.4663 19.4483 54.4973H18.2386C17.974 54.4937 17.7095 54.4718 17.4486 54.4353C17.1493 54.5156 16.8647 54.6324 16.5965 54.7856C15.2427 55.6067 14.4308 57.0845 14.4618 58.6646C14.4873 60.075 15.219 61.3777 16.4122 62.1331L16.5856 62.2462C16.7936 62.3739 17.0125 62.4816 17.2424 62.5637H17.3446C17.5617 62.6366 17.777 62.6877 17.9923 62.7388H18.1875C18.4466 62.7644 18.7075 62.7644 18.9666 62.7388C21.3075 62.7078 23.216 60.8504 23.309 58.5113L23.3072 58.5095Z" fill="#81D9B9"/>
<path d="M18.0016 43.3515C20.411 43.3515 22.3641 41.431 22.3641 39.062C22.3641 36.6929 20.411 34.7725 18.0016 34.7725C15.5923 34.7725 13.6392 36.6929 13.6392 39.062C13.6392 41.431 15.5923 43.3515 18.0016 43.3515Z" fill="#81D9B9"/>
</svg>

<svg width="128" height="80" fill="none" xmlns="http://www.w3.org/2000/svg"><path d="M80.31 31.46c.382 0 .764.042 1.138.124.385.084.766.19 1.138.318h4.394v1.353h-2.945v.084c.321.369.575.794.748 1.252.15.456.225.934.226 1.416a3.992 3.992 0 0 1-1.333 3.08 4.406 4.406 0 0 1-3.08 1.24s-1.436 0-1.538.256c0 0-1.345 1.171 0 1.788.576.25 1.19.41 1.815.47l.204.013c.29.02.648.06 1.059.06h.266c.648.083 1.099.083 1.376.083.407.023.803.127 1.17.306.383.195.73.45 1.027.761.334.347.605.748.8 1.19.212.518.318 1.072.307 1.633a4.452 4.452 0 0 1-.39 1.846 4.095 4.095 0 0 1-1.23 1.518 6.555 6.555 0 0 1-2.053 1.027c-.949.26-1.932.38-2.915.36a7.906 7.906 0 0 1-4.239-.913 2.925 2.925 0 0 1-1.405-2.649 2.704 2.704 0 0 1 1.026-2.217 4.357 4.357 0 0 1 2.585-.894v-.182a10.386 10.386 0 0 1-.779-.32 2.935 2.935 0 0 1-.699-.43 2.175 2.175 0 0 1-.532-.688 2.123 2.123 0 0 1-.207-1.027c.006-.487.172-.96.473-1.343.392-.45.885-.803 1.438-1.027v-.206a5.12 5.12 0 0 1-1.88-1.6 3.848 3.848 0 0 1-.677-2.26 4.173 4.173 0 0 1 1.325-3.18 4.728 4.728 0 0 1 3.386-1.24v-.002zm.676 14.195c-1.282-.073-2.505.544-2.505 2.053.004.231.055.461.146.675.104.244.267.46.47.627.247.203.534.354.842.442.42.128.858.186 1.294.173a3.31 3.31 0 0 0 2.052-.595c.498-.441.792-1.069.81-1.733a1.473 1.473 0 0 0-.523-1.253 2.247 2.247 0 0 0-1.2-.298c-.463-.091-.924-.091-1.386-.091zm-25.05-18.342v3.613l-5.504 11.996h5.605v3.069H45.775v-1.334l6.702-13.68h-6.517v-3.664h9.976zm5.838 4.864v13.814h-3.715V32.179h3.715v-.002zm8.91-.719a3.704 3.704 0 0 1 3.241 1.498c.035.06.066.122.091.186.387.898.542 1.88.453 2.852v9.998h-3.981V36.57c.009-.626.018-1.642-.657-1.949a1.507 1.507 0 0 0-.78-.113 1.42 1.42 0 0 0-.647.195c-.626.4-.626 1.496-.626 2.166v9.123h-3.983V31.666h3.983v.821a4.415 4.415 0 0 1 2.905-1.027v-.002zm9.532 1.498a1.221 1.221 0 0 0-.708.206c-.21.15-.376.35-.481.584a2.968 2.968 0 0 0-.247.843 6.62 6.62 0 0 0-.073 1.005c-.025.663.12 1.32.42 1.909.2.436.622.724 1.1.748.498.006.953-.283 1.159-.737a3.71 3.71 0 0 0 .41-1.858c.033-.68-.11-1.359-.41-1.97a1.292 1.292 0 0 0-1.168-.73h-.002zm-20.27-6.495c.487.002.95.212 1.273.575l.146.173c.272.363.416.806.409 1.262a2.05 2.05 0 0 1-.566 1.458c-.328.37-.806.577-1.302.566a1.715 1.715 0 0 1-1.272-.577 2.186 2.186 0 0 1 0-2.893l.182-.165a1.874 1.874 0 0 1 1.131-.401l-.001.002z" fill="#fff"/><path d="m124 31.879-5.227 15.392-.36 1.027-.144.356c-.188.456-.358.843-.522 1.162-.244.46-.533.892-.863 1.294l-.244.262a3.57 3.57 0 0 1-1.203.763 5.083 5.083 0 0 1-1.928.34c-.471 0-.942-.033-1.407-.103h-.37v-2.616l.514.082c.309.047.621.07.934.06.54.04 1.077-.12 1.507-.45.416-.415.705-.938.832-1.51l.185-.647-5.346-15.332h4.167l2.71 10.479 2.709-10.479h3.448l.604-.082.004.002zm-18.988-.144a5.296 5.296 0 0 1 3.623 1.231 4.794 4.794 0 0 1 1.447 3.808v10.057h-2.751v-1.025c-.261.273-.562.51-.892.697a4.706 4.706 0 0 1-2.39.596c-.632 0-1.256-.12-1.84-.36a4.115 4.115 0 0 1-1.456-1.026 4.407 4.407 0 0 1-.934-1.487l-.124-.376a5.45 5.45 0 0 1-.215-1.555 4.794 4.794 0 0 1 .555-2.33 3.897 3.897 0 0 1 1.693-1.56 5.503 5.503 0 0 1 2.616-.565h2.956v-1.026a2.23 2.23 0 0 0-.584-1.744 2.516 2.516 0 0 0-1.755-.555 2.847 2.847 0 0 0-1.509.35c-.365.236-.62.603-.719 1.026l-.091.32h-2.671v-.475a3.921 3.921 0 0 1 1.54-2.974 5.697 5.697 0 0 1 3.499-1.027h.002zm-12.047-3.469a6.475 6.475 0 0 1 4.526 1.354l.252.298a5.647 5.647 0 0 1 1.186 3.962 6.986 6.986 0 0 1-.71 3.336c-.48.897-1.26 1.6-2.206 1.98l-.584.17a11.06 11.06 0 0 1-2.997.364v6.877H88.51v-18.34h4.454zm14.061 12.254-2.28.031a1.433 1.433 0 0 0-1.25.513 2.358 2.358 0 0 0-.382 1.405c-.043.572.128 1.14.484 1.592l.144.145c.303.27.697.42 1.108.42.624 0 1.206-.31 1.56-.822.432-.595.649-1.319.616-2.052V40.52zm-14.337-9.25-.257.014v5.388c.66.047 1.319-.117 1.879-.474.476-.57.693-1.314.593-2.051a3.298 3.298 0 0 0-.604-2.217 2.33 2.33 0 0 0-1.868-.646l.257-.014z" fill="#72C579"/><path d="M23.616 50.611a.99.99 0 0 0 .062.142c.096.227.224.438.38.626.13.183.278.35.44.504a4.84 4.84 0 0 0 1.1.77c.225.107.459.2.696.277a4.83 4.83 0 0 1 1.9-.401c.397.003.793.054 1.18.155a4.209 4.209 0 0 0 2.175-4.105 4 4 0 0 0-3.078-4.106 7.314 7.314 0 0 1-.821.06c-1.817 0-4.25-.727-5.133-2.514-.543-1.15 0-2.432-.275-3.621a4.455 4.455 0 0 0-1.724-2.495 4.337 4.337 0 0 0-2.588-.832 4.043 4.043 0 0 0-3.08 6.835 4.406 4.406 0 0 0 2.956 1.427h.546a5.702 5.702 0 0 1 4.455 2.317 5.703 5.703 0 0 1 .902 4.94l-.091.02-.002.001z" fill="#A8E2C1"/><path d="M12.8 49.993a5.914 5.914 0 0 1-.083-.78v-.185a5.63 5.63 0 0 1 2.77-4.864h.051a5.591 5.591 0 0 1 2.732-.72c.481 0 .523-.286.974-.172a4.467 4.467 0 0 0 3.08-3.82 4.104 4.104 0 0 0-1.29-3.094 4.098 4.098 0 0 0-3.166-1.104 4.373 4.373 0 0 0-4.187 4.538 5.048 5.048 0 0 1-2.197 4.607c-1.549.832-3.344.226-4.842 1.254a4.362 4.362 0 1 0 6.382 5.264 5.92 5.92 0 0 1-.224-.924z" fill="#93D9E5"/><path d="M37.502 54.005a5.668 5.668 0 0 1-3.15-.677 4.539 4.539 0 0 1-1.869-1.704 5.446 5.446 0 0 1-.894-3.007 5.592 5.592 0 0 1 .31-1.815 4.291 4.291 0 0 0-8.057 2.206 4.105 4.105 0 0 0 2.443 3.828 5.1 5.1 0 0 1 1.538-.318 4.843 4.843 0 0 1 5.133 4.27c.237 1.24 0 2.554.698 3.735a4.402 4.402 0 0 0 3.795 2.196 4.37 4.37 0 0 0 4.16-4.368 4.37 4.37 0 0 0-4.16-4.366l.053.02z" fill="#A8E2C1"/><path d="M17.93 34.773a6.285 6.285 0 0 1-3.386-.595 4.77 4.77 0 0 1-1.746-1.786 3.763 3.763 0 0 1-.338-1.108 6.522 6.522 0 0 1 0-2.885 4.361 4.361 0 1 0-3.972 5.88 5.26 5.26 0 0 1 3.018.73 4.394 4.394 0 0 1 1.55 1.55c.902 1.538.245 3.15 1.168 4.68a4.392 4.392 0 0 0 8.16-2.175 4.373 4.373 0 0 0-4.454-4.291z" fill="#93D9E5"/><path d="M17.602 16.003a4.319 4.319 0 0 0-4.106 3.375c-.175.925-.153 1.88-.317 2.803a5.052 5.052 0 0 1-.894 2.166 3.175 3.175 0 0 1-1.94 1.24c-.682.055-1.368.055-2.052 0a4.363 4.363 0 0 0-1.283 8.51 4.506 4.506 0 0 0 5.224-2.053 1.59 1.59 0 0 0 .184-.523 2.452 2.452 0 0 0 0-.73 5.927 5.927 0 0 1 .36-3.211 4.385 4.385 0 0 1 2.236-2.3c1.325-.565 2.865-.328 4.23-.811a4.378 4.378 0 0 0 2.791-3.9 4.341 4.341 0 0 0-4.446-4.568h.01l.003.002z" fill="#93D9E5"/><path d="M37.235 34.889a4.373 4.373 0 0 0-4.26 4.473 5.279 5.279 0 0 1-.717 3.018 4.668 4.668 0 0 1-1.55 1.55c-1.552.904-3.347.298-4.876 1.221a4.453 4.453 0 0 0 .534 7.738c.58-.237 1.201-.357 1.827-.359.584 0 1.16.11 1.704.32a4.46 4.46 0 0 0 2.053-1.993 5.663 5.663 0 0 1-.42-2.153 5.28 5.28 0 0 1 3.498-5.133c.388-.136.799-.202 1.211-.195h.164a5.73 5.73 0 0 0 3.151-.36 4.41 4.41 0 0 0 2.175-3.878 4.371 4.371 0 0 0-4.494-4.25z" fill="#A8E2C1"/><path d="M31.61 48.598c0-.677.127-1.35.371-1.982a4.415 4.415 0 0 0-3.83-2.052 5.628 5.628 0 0 0-.799.09c-.259.057-.512.132-.759.229-.239.1-.469.22-.688.357-.219.134-.42.289-.605.464-.194.17-.369.36-.524.564-.157.202-.292.42-.41.646a4.363 4.363 0 0 0-.309.707 5.16 5.16 0 0 0-.164.782c0 .37 0 .748-.062 1.118-.006.175-.024.35-.051.523-.024.167-.059.33-.102.493-.104.325-.236.64-.39.945a7.127 7.127 0 0 1-.338.595 5.138 5.138 0 0 1-4.66 2.545 7.434 7.434 0 0 1-.832-.073c-.301.086-.59.206-.861.36a4.435 4.435 0 0 0-2.135 3.88 4.425 4.425 0 1 0 8.845-.217 6.321 6.321 0 0 1 .31-2.48 4.762 4.762 0 0 1 4.638-3.553c.659 0 1.312.133 1.92.39a4.442 4.442 0 0 0 1.98-1.93 5.465 5.465 0 0 1-.544-2.401z" fill="#81D9B9"/><path d="M27.712 52.528c2.142 0 3.878-1.787 3.878-3.992s-1.736-3.992-3.878-3.992c-2.143 0-3.88 1.787-3.88 3.992s1.737 3.992 3.88 3.992z" fill="#81D9B9"/><path d="M19.983 54.417a5.79 5.79 0 0 1-1.54.216h-.204a5.603 5.603 0 0 1-5.563-5.623V48.31a3.11 3.11 0 0 1 .062-.43c.029-.183.07-.366.122-.545a4.463 4.463 0 0 0-4.014-2.288 4.37 4.37 0 1 0 .217 8.733 5.417 5.417 0 0 1 3.078.719 4.563 4.563 0 0 1 1.684 1.5c.923 1.548.308 3.344 1.252 4.873a4.497 4.497 0 0 0 3.92 2.052 4.34 4.34 0 0 0 1.026-8.559l-.04.051z" fill="#93D9E5"/><path d="M23.307 58.51a4.372 4.372 0 0 0-3.324-4.106h-.124c-.133 0-.276.062-.41.093h-1.21a6.332 6.332 0 0 1-.79-.062c-.3.08-.584.197-.853.35a4.434 4.434 0 0 0-2.134 3.88 4.193 4.193 0 0 0 1.95 3.468l.174.113c.208.128.427.236.656.318h.103c.217.073.432.124.647.175h.195c.26.025.52.025.78 0a4.404 4.404 0 0 0 4.342-4.228l-.002-.002zM18.002 43.352c2.409 0 4.362-1.921 4.362-4.29 0-2.37-1.953-4.29-4.362-4.29-2.41 0-4.363 1.92-4.363 4.29 0 2.369 1.953 4.29 4.363 4.29z" fill="#81D9B9"/></svg>
